img/ExxonMobil.svg

<svg width="1387pt" height="278pt" viewBox="0 0 1387 278" xmlns="http://www.w3.org/2000/svg"><g fill="#fe000c"><path d="M10 11c40.92 0 81.84-.01 122.77 0-.01 11.58 0 23.16-.01 34.73-27 0-53.99 0-80.99.01-.01 12.88-.01 25.77 0 38.66 25.75-.02 51.51.04 77.27-.03.17 11.25.03 22.51.07 33.76-25.78.01-51.56 0-77.34 0-.01 14.84 0 29.69-.01 44.53 27 .02 54-.01 81.01.01-.01 11.62 0 23.24-.01 34.86-40.92 0-81.83 0-122.75.01C9.99 135.36 10 73.18 10 11zm697.53 0c22.02.01 44.04-.03 66.05.02 10.19 44.71 20.46 89.4 30.68 134.09.18 1.08.74 1.91 1.68 2.51 10.83-45.51 21.39-91.09 32.13-136.62h64.1c.01 62.18 0 124.35.01 186.52-13.08.02-26.16.01-39.23.01-.08-46.9.13-93.8-.1-140.7l-1-.46c-.25.4-.74 1.21-.99 1.61-11.52 46.49-22.87 93.04-34.33 139.55h-44.09c-11-45.89-22.06-91.76-33.02-137.66-.61-1.28-.29-4.01-2.59-3.36-.01 47.01 0 94.02-.01 141.02-13.1 0-26.2.01-39.29 0V11zm387.12 0h38.82c-.01 20.23.01 40.45-.01 60.68 12.69-10.93 30.11-14.83 46.52-13.76 17.32 1.16 33.7 10.14 44.65 23.51 15.93 19.18 20.69 46.62 13.23 70.28-7.53 24.52-29.18 44.85-54.92 48.35-17.29 2.07-35.89-1.76-49.52-13.03-.12 3.5-.27 7-.41 10.5-12.79 0-25.58.01-38.36 0V11m64.86 84.63c-5.91 1.1-11.53 3.77-16.06 7.73-13.3 11.29-15.22 33.02-4.6 46.74 8.32 11.26 23.92 15.79 37.2 11.88 9.59-2.65 17.73-9.9 21.51-19.1 5.58-13.09 2.55-29.69-8.25-39.23-7.88-7.29-19.36-9.94-29.8-8.02zM1264.89 11h40.46c0 11.58.01 23.16 0 34.74-13.49-.01-26.98 0-40.46-.01-.01-11.57-.01-23.15 0-34.73zm71.64 0H1377c-.01 62.18.01 124.36-.01 186.54-13.49-.02-26.98 0-40.46-.01V11zM276.26 27.46c15.61.02 31.22 0 46.83.01-22.42 28.3-44.9 56.54-67.31 84.85 8.74 8.75 17.45 17.54 26.19 26.3 20.14-25.88 40.33-51.7 60.4-77.63 15.69-.13 31.37-.03 47.06-.05-27.27 34.5-54.55 68.97-81.83 103.46 34.63 34.88 69.31 69.72 103.96 104.6-18.9.01-37.79-.01-56.68 0-24.12-24.54-48.22-49.11-72.36-73.64l-38.44 49.84h-46.96c20-25.08 40.03-50.15 60.03-75.22-8.74-8.87-17.48-17.72-26.24-26.56-14.05 18.03-28.05 36.1-42.11 54.12-15.59-.02-31.18 0-46.76-.01 21.21-26.59 42.45-53.15 63.66-79.74-18.75-18.95-37.53-37.89-56.27-56.85 18.2.01 36.42-.03 54.62.01 1.41-.25 2.22 1.07 3.13 1.86 7.66 7.99 15.39 15.9 23.08 23.85 15.34-19.73 30.64-39.5 46-59.2z"/><path d="M437.54 58.79c17.21-2.87 35.47.17 50.53 9.09 12.63 7.4 22.88 18.8 28.82 32.19 7.11 15.83 8.09 34.27 2.85 50.8-4.57 14.59-14.09 27.55-26.59 36.34-23.81 17.05-57.84 17.86-82.54 2.21-13.51-8.41-24.02-21.51-29.23-36.55-6.88-19.52-4.8-42.03 5.81-59.84 10.56-18.19 29.62-30.95 50.35-34.24m5.05 36.93c-12.36 2.64-22.33 13.11-24.91 25.4-3.38 14.12 2.62 30.32 15.34 37.74 13.9 8.58 33.94 5.28 43.84-7.89 10.72-13.49 9.55-34.94-3.02-46.86-8.05-8-20.31-10.93-31.25-8.39zm140.57-21.95c10.49-9.77 24.45-15.67 38.82-15.99 15.11-.84 30.67 5.07 40.63 16.62 9.26 10.51 13.28 24.78 12.98 38.61-.01 28.17 0 56.35 0 84.52-13.3 0-26.59.01-39.88 0-.01-24.51 0-49.02-.01-73.53.07-8.3-1.24-17.32-7.03-23.69-5.12-5.79-13.3-7.76-20.76-7.13-6.54.39-13.09 3.37-16.99 8.74-4.25 5.72-5.58 13.05-5.62 20.03-.01 25.19-.01 50.38-.01 75.58-13.31.01-26.62 0-39.93 0-.01-45.53-.01-91.06-.01-136.59 12.61-.01 25.22-.01 37.82 0 0 4.28.01 8.55-.01 12.83zM985.57 58.8c16.02-2.68 32.97-.32 47.4 7.25 13.2 6.83 24.17 17.89 30.79 31.21 8.14 16.16 9.69 35.47 4.42 52.76-4.48 14.99-14.19 28.31-26.98 37.28-23.42 16.67-56.68 17.71-81.23 2.83-13.05-7.8-23.49-19.91-29.18-34.03-7.4-18.11-6.9-39.27 1.39-57 9.65-21.21 30.42-36.67 53.39-40.3m4.98 36.96c-5.78 1.36-11.19 4.31-15.41 8.48-12.33 11.93-13.56 33.11-2.96 46.53 7.96 10.7 22.7 15.17 35.42 11.66 11.01-2.76 20.02-11.73 23.18-22.58 4.02-12.79.33-27.84-9.82-36.77-8.12-7.26-19.89-9.88-30.41-7.32zm274.34-34.82c13.48-.01 26.97-.01 40.46 0v136.59c-13.49.01-26.97 0-40.46 0-.02-45.53 0-91.06 0-136.59z"/></g></svg>

<?xml version="1.0" encoding="UTF-8" ?>
<!DOCTYPE svg PUBLIC "-//W3C//DTD SVG 1.1//EN" "http://www.w3.org/Graphics/SVG/1.1/DTD/svg11.dtd">
<svg width="1387pt" height="278pt" viewBox="0 0 1387 278" version="1.1" xmlns="http://www.w3.org/2000/svg">
<g id="#fe000cff">
<path fill="#fe000c" opacity="1.00" d=" M 10.00 11.00 C 50.92 11.00 91.84 10.99 132.77 11.00 C 132.76 22.58 132.77 34.16 132.76 45.73 C 105.76 45.73 78.77 45.73 51.77 45.74 C 51.76 58.62 51.76 71.51 51.77 84.40 C 77.52 84.38 103.28 84.44 129.04 84.37 C 129.21 95.62 129.07 106.88 129.11 118.13 C 103.33 118.14 77.55 118.13 51.77 118.13 C 51.76 132.97 51.77 147.82 51.76 162.66 C 78.76 162.68 105.76 162.65 132.77 162.67 C 132.76 174.29 132.77 185.91 132.76 197.53 C 91.84 197.53 50.93 197.53 10.01 197.54 C 9.99 135.36 10.00 73.18 10.00 11.00 Z" />
<path fill="#fe000c" opacity="1.00" d=" M 707.53 11.00 C 729.55 11.01 751.57 10.97 773.58 11.02 C 783.77 55.73 794.04 100.42 804.26 145.11 C 804.44 146.19 805.00 147.02 805.94 147.62 C 816.77 102.11 827.33 56.53 838.07 11.00 C 859.44 11.00 880.80 11.00 902.17 11.00 C 902.18 73.18 902.17 135.35 902.18 197.52 C 889.10 197.54 876.02 197.53 862.95 197.53 C 862.87 150.63 863.08 103.73 862.85 56.83 L 861.85 56.37 C 861.60 56.77 861.11 57.58 860.86 57.98 C 849.34 104.47 837.99 151.02 826.53 197.53 C 811.84 197.53 797.14 197.53 782.44 197.53 C 771.44 151.64 760.38 105.77 749.42 59.87 C 748.81 58.59 749.13 55.86 746.83 56.51 C 746.82 103.52 746.83 150.53 746.82 197.53 C 733.72 197.53 720.62 197.54 707.53 197.53 C 707.53 135.35 707.53 73.18 707.53 11.00 Z" />
<path fill="#fe000c" opacity="1.00" d=" M 1094.65 11.00 C 1107.59 11.00 1120.53 11.00 1133.47 11.00 C 1133.46 31.23 1133.48 51.45 1133.46 71.68 C 1146.15 60.75 1163.57 56.85 1179.98 57.92 C 1197.30 59.08 1213.68 68.06 1224.63 81.43 C 1240.56 100.61 1245.32 128.05 1237.86 151.71 C 1230.33 176.23 1208.68 196.56 1182.94 200.06 C 1165.65 202.13 1147.05 198.30 1133.42 187.03 C 1133.30 190.53 1133.15 194.03 1133.01 197.53 C 1120.22 197.53 1107.43 197.54 1094.65 197.53 C 1094.65 135.35 1094.65 73.18 1094.65 11.00 M 1159.51 95.63 C 1153.60 96.73 1147.98 99.40 1143.45 103.36 C 1130.15 114.65 1128.23 136.38 1138.85 150.10 C 1147.17 161.36 1162.77 165.89 1176.05 161.98 C 1185.64 159.33 1193.78 152.08 1197.56 142.88 C 1203.14 129.79 1200.11 113.19 1189.31 103.65 C 1181.43 96.36 1169.95 93.71 1159.51 95.63 Z" />
<path fill="#fe000c" opacity="1.00" d=" M 1264.89 11.00 C 1278.37 11.00 1291.86 11.00 1305.35 11.00 C 1305.35 22.58 1305.36 34.16 1305.35 45.74 C 1291.86 45.73 1278.37 45.74 1264.89 45.73 C 1264.88 34.16 1264.88 22.58 1264.89 11.00 Z" />
<path fill="#fe000c" opacity="1.00" d=" M 1336.53 11.00 C 1350.02 11.00 1363.51 11.00 1377.00 11.00 C 1376.99 73.18 1377.01 135.36 1376.99 197.54 C 1363.50 197.52 1350.01 197.54 1336.53 197.53 C 1336.53 135.35 1336.53 73.18 1336.53 11.00 Z" />
<path fill="#fe000c" opacity="1.00" d=" M 276.26 27.46 C 291.87 27.48 307.48 27.46 323.09 27.47 C 300.67 55.77 278.19 84.01 255.78 112.32 C 264.52 121.07 273.23 129.86 281.97 138.62 C 302.11 112.74 322.30 86.92 342.37 60.99 C 358.06 60.86 373.74 60.96 389.43 60.94 C 362.16 95.44 334.88 129.91 307.60 164.40 C 342.23 199.28 376.91 234.12 411.56 269.00 C 392.66 269.01 373.77 268.99 354.88 269.00 C 330.76 244.46 306.66 219.89 282.52 195.36 C 269.71 211.97 256.89 228.59 244.08 245.20 C 228.42 245.20 212.77 245.20 197.12 245.20 C 217.12 220.12 237.15 195.05 257.15 169.98 C 248.41 161.11 239.67 152.26 230.91 143.42 C 216.86 161.45 202.86 179.52 188.80 197.54 C 173.21 197.52 157.62 197.54 142.04 197.53 C 163.25 170.94 184.49 144.38 205.70 117.79 C 186.95 98.84 168.17 79.90 149.43 60.94 C 167.63 60.95 185.85 60.91 204.05 60.95 C 205.46 60.70 206.27 62.02 207.18 62.81 C 214.84 70.80 222.57 78.71 230.26 86.66 C 245.60 66.93 260.90 47.16 276.26 27.46 Z" />
<path fill="#fe000c" opacity="1.00" d=" M 437.54 58.79 C 454.75 55.92 473.01 58.96 488.07 67.88 C 500.70 75.28 510.95 86.68 516.89 100.07 C 524.00 115.90 524.98 134.34 519.74 150.87 C 515.17 165.46 505.65 178.42 493.15 187.21 C 469.34 204.26 435.31 205.07 410.61 189.42 C 397.10 181.01 386.59 167.91 381.38 152.87 C 374.50 133.35 376.58 110.84 387.19 93.03 C 397.75 74.84 416.81 62.08 437.54 58.79 M 442.59 95.72 C 430.23 98.36 420.26 108.83 417.68 121.12 C 414.30 135.24 420.30 151.44 433.02 158.86 C 446.92 167.44 466.96 164.14 476.86 150.97 C 487.58 137.48 486.41 116.03 473.84 104.11 C 465.79 96.11 453.53 93.18 442.59 95.72 Z" />
<path fill="#fe000c" opacity="1.00" d=" M 583.16 73.77 C 593.65 64.00 607.61 58.10 621.98 57.78 C 637.09 56.94 652.65 62.85 662.61 74.40 C 671.87 84.91 675.89 99.18 675.59 113.01 C 675.58 141.18 675.59 169.36 675.59 197.53 C 662.29 197.53 649.00 197.54 635.71 197.53 C 635.70 173.02 635.71 148.51 635.70 124.00 C 635.77 115.70 634.46 106.68 628.67 100.31 C 623.55 94.52 615.37 92.55 607.91 93.18 C 601.37 93.57 594.82 96.55 590.92 101.92 C 586.67 107.64 585.34 114.97 585.30 121.95 C 585.29 147.14 585.29 172.33 585.29 197.53 C 571.98 197.54 558.67 197.53 545.36 197.53 C 545.35 152.00 545.35 106.47 545.35 60.94 C 557.96 60.93 570.57 60.93 583.17 60.94 C 583.17 65.22 583.18 69.49 583.16 73.77 Z" />
<path fill="#fe000c" opacity="1.00" d=" M 985.57 58.80 C 1001.59 56.12 1018.54 58.48 1032.97 66.05 C 1046.17 72.88 1057.14 83.94 1063.76 97.26 C 1071.90 113.42 1073.45 132.73 1068.18 150.02 C 1063.70 165.01 1053.99 178.33 1041.20 187.30 C 1017.78 203.97 984.52 205.01 959.97 190.13 C 946.92 182.33 936.48 170.22 930.79 156.10 C 923.39 137.99 923.89 116.83 932.18 99.10 C 941.83 77.89 962.60 62.43 985.57 58.80 M 990.55 95.76 C 984.77 97.12 979.36 100.07 975.14 104.24 C 962.81 116.17 961.58 137.35 972.18 150.77 C 980.14 161.47 994.88 165.94 1007.60 162.43 C 1018.61 159.67 1027.62 150.70 1030.78 139.85 C 1034.80 127.06 1031.11 112.01 1020.96 103.08 C 1012.84 95.82 1001.07 93.20 990.55 95.76 Z" />
<path fill="#fe000c" opacity="1.00" d=" M 1264.89 60.94 C 1278.37 60.93 1291.86 60.93 1305.35 60.94 C 1305.35 106.47 1305.35 152.00 1305.35 197.53 C 1291.86 197.54 1278.38 197.53 1264.89 197.53 C 1264.87 152.00 1264.89 106.47 1264.89 60.94 Z" />
</g>
</svg>
